X:1
T:Title
%%score { 1 | ( 2 3 ) }
L:1/8
Q:1/4=100
M:4/4
K:Eb
V:1 treble nm="Grand Piano"
V:2 bass 
V:3 bass 
V:1
 G3 G GFGA | B2 c2 B4 | E3 E ED[G,B,E][DF] | [B,EG]2 [EB]2 [DF]4 | G3 G GFGA | B2 c2 d4 | %6
w: H.~J.~E.~Holmes * * * * *||||||
 [Ee]3 E ED[G,B,E][DF] | [B,EG]2 [DB]2 E4 |] %8
w: ||
V:2
 z4 B,2 [B,E]2 | [G,B,E]2 [A,E]2 [G,B,E]4 | [B,,G,]3 [B,,G,] [B,,B,]-[B,,F,B,] z A, | %3
 B,,2 [B,,G,]2 [B,,B,]4 | z4 .[E,E]2 [B,E]2 | [G,E]2 [A,CE]2 [G,=B,F]4 | %6
 [C,C]3 [C,G,] [B,,B,]-[B,,F,B,] z A, | B,,2 [B,,A,]2 [E,G,]4 |] %8
V:3
 [E,B,E]3 [E,B,E] [E,E]D,E,F, | x8 | z4 .G,2 B,,2 | x8 | [E,B,E]3 [E,B,E] B,-[D,B,]E,F, | x8 | %6
 z4 .G,2 B,,2 | x8 |] %8

